X:2
T:Bride's Jig
R:Jig
C:Trad
M:6/8
L:1/8
Q:"114 bpm"
K:D
[|: {g}B{d}B{e}B {Gdc}d2 e | {g}fed {gcd}c2 B | {g}A{d}A{e}A {gcd}c2d | {g}caf {g}ecA |
{g}B{d}B{e}B {Gdc}d2 e | {g}fed {gcd}c2e | {g}df{e}f {g}edc | {g}B{d}B{e}B {g}f3 :|]
[|: {Gdc}d2e {g}f2g | afd afd | {g}A2B {GdG}c2 d | {g}caf {g}ecA |
{Gdc}d2e {g}f2g | afd {g}cde | {g}df{e}f {g}edc | {g}B{d}B{e}B {g}f3 :|]


